X:66
T:Kid on the Mountain, The
R:slip jig
M:9/8
L:1/8
K:EMin
EEE FEF G2 F|EEE BcA BGD|EEE FEF G2 A|BAG FAG FED :||:BGB AFD G2 D|GAB dg
e dBA|BGB AFD G2 A|BAG FAG FED :||:gfg eBe e2 f|gfg efg afd|gfg eBe ega|b
ag fag fed :||:eBe e2 f g3  |eBe efg afd|eBe e2 f g2 a|bag fag fed :||:edB
dBA G2 D|GAB dge dBd|edB dBA G2 A|BAG FAG FED :|
